; generated by PrusaSlicer 2.9.5 on 2026-06-01 at 16:39:43 UTC


;
;
; 

; external perimeters extrusion width = 0.45mm
; perimeters extrusion width = 0.45mm
; infill extrusion width = 0.45mm
; solid infill extrusion width = 0.45mm
; top infill extrusion width = 0.40mm
; support material extrusion width = 0.35mm
; first layer extrusion width = 0.42mm

M73 P0 R100
M73 Q0 S101
M201 X1000 Y1000 Z200 E5000 ; sets maximum accelerations, mm/sec^2
M203 X200 Y200 Z12 E120 ; sets maximum feedrates, mm / sec
M204 S1250 T1250 ; sets acceleration (S) and retract acceleration (R), mm/sec^2
M205 X8.00 Y8.00 Z0.40 E4.50 ; sets the jerk limits, mm/sec
M205 S0 T0 ; sets the minimum extruding and travel feed rate, mm/sec

; printing object Fall_Protectoin.stl id:0 copy 0
; stop printing object Fall_Protectoin.stl id:0 copy 0

;TYPE:Custom
M862.3 P "MK3S" ; printer model check
M862.1 P0.4 ; nozzle diameter check
M115 U3.14.1 ; tell printer latest fw version
G90 ; use absolute coordinates
M83 ; extruder relative mode
M104 S215 ; set extruder temp
M140 S60 ; set bed temp
M190 S60 ; wait for bed temp
M109 S215 ; wait for extruder temp
G28 W ; home all without mesh bed level
G80 X87.6229 Y57.6229 W74.7542 H94.7542 ; mesh bed levelling

G1 Z0.2 F720
G1 Y-3 F1000 ; go outside print area
G92 E0
G1 X60 E9 F1000 ; intro line
G1 X100 E12.5 F1000 ; intro line

G92 E0
M221 S95

; Don't change E values below. Excessive value can damage the printer.

M907 E538 ; set extruder motor current
G21 ; set units to millimeters
G90 ; use absolute coordinates
M83 ; use relative distances for extrusion

M900 K0.05 ; Filament gcode LA 1.5
M900 K30 ; Filament gcode LA 1.0




M107
;LAYER_CHANGE
;Z:0.2
;HEIGHT:0.2
G1 E-.8 F2100
M73 P0 R99
G1 Z.6 F720
G1 X88.963 Y60.421 F10800
G1 Z.2 F720
G1 E.8 F2100
M204 S800
;TYPE:Skirt/Brim
;WIDTH:0.42
G1 F1200
G1 X89.074 Y60.259 E.00616
G1 X89.776 Y59.48 E.03288
G1 X91.006 Y58.586 E.04768
G1 X91.589 Y58.303 E.02032
G1 X92.602 Y57.973 E.0334
G1 X93.886 Y57.814 E.04057
G1 X148.451 Y57.814 E1.71085
G1 X149.655 Y57.954 E.038
G1 X150.809 Y58.326 E.03802
G1 X151.691 Y58.797 E.03135
G1 X152.641 Y59.55 E.03801
G1 X160.714 Y67.65 E.35857
G1 X161.506 Y68.836 E.04472
G1 X161.888 Y69.758 E.03129
G1 X162.088 Y70.555 E.02576
G1 X162.189 Y71.657 E.0347
G1 X162.189 Y138.343 E2.09089
G1 X162.146 Y139.056 E.0224
G1 X161.951 Y140.036 E.03133
G1 X161.674 Y140.81 E.02578
G1 X161.203 Y141.691 E.03132
G1 X160.376 Y142.719 E.04137
G1 X152.35 Y150.714 E.3552
G1 X151.691 Y151.203 E.02573
G1 X150.81 Y151.674 E.03132
G1 X150.036 Y151.951 E.02578
G1 X149.056 Y152.146 E.03133
G1 X94 Y152.189 E1.72624
G1 X93.24 Y152.14 E.02388
G1 X92.197 Y151.918 E.03344
G1 X90.808 Y151.3 E.04767
G1 X90.272 Y150.937 E.0203
G1 X89.48 Y150.224 E.03341
G1 X88.586 Y148.994 E.04768
G1 X88.303 Y148.411 E.02032
G1 X87.973 Y147.398 E.0334
G1 X87.811 Y146 E.04413
G1 X87.811 Y64 E2.57105
G1 X87.86 Y63.24 E.02388
G1 X88.082 Y62.197 E.03344
G1 X88.7 Y60.808 E.04767
G1 X88.93 Y60.471 E.01279
M204 S1000
;WIPE_START
G1 F8640
G1 X88.963 Y60.421 E-.01383
G1 X89.074 Y60.259 E-.04534
G1 X89.776 Y59.48 E-.24213
G1 X91.006 Y58.586 E-.3511
G1 X91.581 Y58.306 E-.1476
;WIPE_END
G1 Z.6 F720
; printing object Fall_Protectoin.stl id:0 copy 0
G1 X110.463 Y80.024 F10800
G1 Z.2 F720
G1 E.8 F2100
M204 S800
;TYPE:Support material
G1 F1200
G1 X111.326 Y80.358 E.02901
G1 X112.01 Y80.982 E.02903
G1 X112.423 Y81.811 E.02904
G1 X112.518 Y82.422 E.01939
G1 X112.461 Y83.039 E.01943
G1 X112.1 Y83.891 E.02901
G1 X111.455 Y84.556 E.02905
G1 X110.614 Y84.943 E.02903
G1 X109.69 Y85 E.02903
G1 X108.808 Y84.719 E.02902
G1 X108.303 Y84.362 E.01939
G1 X107.9 Y83.891 E.01944
G1 X107.539 Y83.039 E.02901
G1 X107.511 Y82.114 E.02902
G1 X107.818 Y81.24 E.02905
G1 X108.421 Y80.537 E.02904
G1 X109.236 Y80.099 E.02901
G1 X109.845 Y79.986 E.01942
G1 X110.407 Y80.017 E.01765
M204 S1000
G1 X112.012 Y83.705 F10800
M204 S800
G1 F1200
G1 X112.012 Y81.665 E.06396
G1 X111.593 Y81.016 E.02422
G1 X111.593 Y83.982 E.093
G1 X111.174 Y84.331 E.0171
G1 X111.174 Y80.666 E.11491
G1 X110.755 Y80.46 E.01464
G1 X110.755 Y84.542 E.12799
G1 X110.336 Y84.65 E.01357
G1 X110.336 Y80.35 E.13482
G1 X109.917 Y80.325 E.01316
G1 X109.917 Y84.674 E.13636
G1 X109.498 Y84.619 E.01325
G1 X109.498 Y80.384 E.13279
G1 X109.079 Y80.526 E.01387
G1 X109.079 Y84.47 E.12366
G1 X108.66 Y84.213 E.01541
G1 X108.66 Y80.784 E.10751
G1 X108.241 Y81.217 E.01889
G1 X108.241 Y84.054 E.08895
M204 S1000
;WIPE_START
G1 F8640
G1 X108.241 Y81.217 E-.65507
G1 X108.66 Y80.784 E-.13913
G1 X108.66 Y80.809 E-.0058
;WIPE_END
G1 Z.6 F720
G1 X110.463 Y125.024 F10800
G1 Z.2 F720
G1 E.8 F2100
M204 S800
G1 F1200
G1 X111.326 Y125.358 E.02901
G1 X112.01 Y125.982 E.02903
G1 X112.423 Y126.811 E.02904
G1 X112.518 Y127.422 E.01939
G1 X112.461 Y128.039 E.01943
G1 X112.1 Y128.891 E.02901
G1 X111.455 Y129.556 E.02905
G1 X110.614 Y129.943 E.02903
G1 X109.69 Y130 E.02903
G1 X108.808 Y129.719 E.02902
G1 X108.303 Y129.362 E.01939
G1 X107.9 Y128.891 E.01944
G1 X107.539 Y128.039 E.02901
G1 X107.511 Y127.114 E.02902
G1 X107.818 Y126.24 E.02905
G1 X108.421 Y125.537 E.02904
G1 X109.236 Y125.099 E.02901
G1 X109.845 Y124.986 E.01942
G1 X110.407 Y125.017 E.01765
M204 S1000
G1 X112.012 Y128.705 F10800
M204 S800
G1 F1200
G1 X112.012 Y126.665 E.06396
G1 X111.593 Y126.016 E.02422
G1 X111.593 Y128.982 E.093
G1 X111.174 Y129.331 E.0171
G1 X111.174 Y125.666 E.11491
G1 X110.755 Y125.46 E.01464
G1 X110.755 Y129.542 E.12799
G1 X110.336 Y129.65 E.01357
G1 X110.336 Y125.35 E.13482
G1 X109.917 Y125.325 E.01316
G1 X109.917 Y129.674 E.13636
G1 X109.498 Y129.619 E.01325
G1 X109.498 Y125.384 E.13279
G1 X109.079 Y125.526 E.01387
G1 X109.079 Y129.47 E.12366
G1 X108.66 Y129.213 E.01541
G1 X108.66 Y125.784 E.10751
G1 X108.241 Y126.217 E.01889
G1 X108.241 Y129.054 E.08895
M204 S1000
;WIPE_START
G1 F8640
G1 X108.241 Y126.217 E-.65507
G1 X108.66 Y125.784 E-.13913
G1 X108.66 Y125.809 E-.0058
;WIPE_END
G1 Z.6 F720
G1 X108.213 Y130.826 F10800
G1 Z.2 F720
G1 E.8 F2100
M204 S800
;TYPE:Perimeter
;WIDTH:0.419999
G1 F1200
G1 X107.503 Y130.343 E.02692
G1 X106.885 Y129.648 E.02916
G1 X106.455 Y128.823 E.02917
G1 X106.239 Y127.918 E.02917
G1 X106.251 Y126.988 E.02916
G1 X106.489 Y126.089 E.02916
G1 X106.939 Y125.276 E.02914
G1 X107.574 Y124.596 E.02917
G1 X108.356 Y124.092 E.02917
G1 X109.237 Y123.794 E.02916
G1 X110.164 Y123.72 E.02916
G1 X111.081 Y123.874 E.02915
G1 X111.569 Y124.055 E.01632
G1 X112.318 Y124.509 E.02746
G1 X112.977 Y125.165 E.02915
G1 X113.457 Y125.961 E.02914
G1 X113.728 Y126.851 E.02917
G1 X113.773 Y127.78 E.02916
G1 X113.643 Y128.457 E.02161
G1 X113.545 Y128.823 E.01188
G1 X113.192 Y129.532 E.02483
G1 X112.6 Y130.249 E.02915
G1 X111.851 Y130.8 E.02915
G1 X110.99 Y131.152 E.02916
G1 X110.07 Y131.283 E.02914
G1 X109.145 Y131.186 E.02916
G1 X108.271 Y130.866 E.02918
G1 X108.263 Y130.86 E.00031
M204 S1000
G1 X108.388 Y130.501 F10800
M204 S800
;TYPE:External perimeter
G1 F1200
G1 X107.721 Y130.035 E.02551
G1 X107.171 Y129.402 E.02629
G1 X106.792 Y128.655 E.02626
G1 X106.608 Y127.838 E.02626
G1 X106.628 Y127 E.02628
G1 X106.852 Y126.193 E.02626
G1 X107.266 Y125.464 E.02629
G1 X107.845 Y124.859 E.02626
G1 X108.554 Y124.413 E.02626
G1 X109.351 Y124.153 E.02629
G1 X110.187 Y124.096 E.02627
G1 X111.011 Y124.244 E.02625
G1 X111.461 Y124.421 E.01516
G1 X112.119 Y124.83 E.02429
G1 X112.706 Y125.427 E.02625
G1 X113.13 Y126.15 E.02628
G1 X113.365 Y126.954 E.02626
G1 X113.397 Y127.791 E.02626
G1 X113.207 Y128.655 E.02774
G1 X112.855 Y129.364 E.02482
G1 X112.314 Y130.004 E.02628
G1 X111.633 Y130.492 E.02627
G1 X110.854 Y130.8 E.02626
G1 X110.023 Y130.909 E.02628
G1 X109.191 Y130.812 E.02626
G1 X108.442 Y130.527 E.02513
M204 S1000
;WIPE_START
G1 F8640
G1 X108.388 Y130.501 E-.01384
G1 X107.721 Y130.035 E-.18788
G1 X107.171 Y129.402 E-.19363
G1 X106.792 Y128.655 E-.19341
G1 X106.608 Y127.838 E-.19337
G1 X106.61 Y127.761 E-.01787
;WIPE_END
G1 Z.6 F720
G1 X113.76 Y82.849 F10800
G1 Z.2 F720
G1 E.8 F2100
M204 S800
;TYPE:Perimeter
G1 F1200
G1 X113.591 Y83.692 E.02696
G1 X113.192 Y84.532 E.02916
M73 Q0 S100
G1 X112.6 Y85.249 E.02915
G1 X111.851 Y85.8 E.02915
G1 X110.99 Y86.152 E.02916
G1 X110.07 Y86.283 E.02914
G1 X109.145 Y86.186 E.02916
G1 X108.271 Y85.866 E.02918
G1 X107.503 Y85.343 E.02913
G1 X106.885 Y84.648 E.02916
G1 X106.455 Y83.823 E.02917
G1 X106.239 Y82.918 E.02917
G1 X106.251 Y81.988 E.02916
G1 X106.489 Y81.089 E.02916
G1 X106.939 Y80.276 E.02914
G1 X107.574 Y79.596 E.02917
G1 X108.356 Y79.092 E.02917
G1 X109.237 Y78.794 E.02916
G1 X110.164 Y78.72 E.02916
G1 X111.081 Y78.874 E.02915
G1 X111.569 Y79.055 E.01632
G1 X112.318 Y79.509 E.02746
G1 X112.977 Y80.165 E.02915
G1 X113.457 Y80.961 E.02914
G1 X113.728 Y81.851 E.02917
G1 X113.773 Y82.78 E.02916
G1 X113.771 Y82.79 E.00032
M204 S1000
G1 X113.392 Y82.815 F10800
M204 S800
;TYPE:External perimeter
G1 F1200
G1 X113.223 Y83.611 E.02551
G1 X112.855 Y84.364 E.02628
G1 X112.314 Y85.004 E.02628
G1 X111.633 Y85.492 E.02627
G1 X110.854 Y85.8 E.02626
G1 X110.023 Y85.909 E.02628
G1 X109.191 Y85.812 E.02626
G1 X108.408 Y85.514 E.02627
G1 X107.721 Y85.035 E.02626
G1 X107.171 Y84.402 E.02629
G1 X106.792 Y83.655 E.02626
G1 X106.608 Y82.838 E.02626
G1 X106.628 Y82 E.02628
G1 X106.852 Y81.193 E.02626
G1 X107.266 Y80.464 E.02629
G1 X107.845 Y79.859 E.02626
G1 X108.554 Y79.413 E.02626
G1 X109.351 Y79.153 E.02629
G1 X110.187 Y79.096 E.02627
G1 X111.011 Y79.244 E.02625
G1 X111.461 Y79.421 E.01516
G1 X112.119 Y79.83 E.02429
G1 X112.706 Y80.427 E.02625
G1 X113.13 Y81.15 E.02628
G1 X113.365 Y81.954 E.02626
G1 X113.395 Y82.755 E.02513
M204 S1000
;WIPE_START
G1 F8640
G1 X113.392 Y82.815 E-.01387
G1 X113.223 Y83.611 E-.1879
G1 X112.855 Y84.364 E-.19352
G1 X112.314 Y85.004 E-.1935
G1 X111.633 Y85.492 E-.19345
G1 X111.561 Y85.52 E-.01776
;WIPE_END
G1 Z.6 F720
G1 X92.397 Y137.384 F10800
G1 Z.2 F720
G1 E.8 F2100
M204 S800
;TYPE:Perimeter
G1 F1200
G1 X92.561 Y137.256 E.00652
G1 X92.779 Y137.213 E.00697
G1 X139.985 Y137.213 E1.48011
G1 X140.539 Y137.192 E.01738
G1 X141.075 Y137.132 E.01691
G1 X141.605 Y137.032 E.01691
G1 X142.126 Y136.892 E.01692
G1 X142.635 Y136.714 E.01691
G1 X143.129 Y136.498 E.0169
G1 X143.606 Y136.246 E.01691
G1 X144.063 Y135.959 E.01692
G1 X144.497 Y135.639 E.01691
G1 X144.906 Y135.287 E.01692
G1 X145.287 Y134.906 E.01689
G1 X145.639 Y134.497 E.01692
G1 X145.959 Y134.063 E.01691
G1 X146.246 Y133.606 E.01692
G1 X146.498 Y133.129 E.01691
G1 X146.714 Y132.635 E.0169
G1 X146.892 Y132.126 E.01691
G1 X147.032 Y131.605 E.01692
G1 X147.132 Y131.075 E.01691
G1 X147.192 Y130.539 E.01691
G1 X147.213 Y129.985 E.01738
G1 X147.213 Y80.015 E1.56677
G1 X147.192 Y79.461 E.01738
G1 X147.132 Y78.925 E.01691
G1 X147.032 Y78.395 E.01691
G1 X146.892 Y77.874 E.01692
G1 X146.714 Y77.365 E.01691
G1 X146.498 Y76.871 E.0169
G1 X146.246 Y76.394 E.01691
G1 X145.959 Y75.937 E.01692
G1 X145.639 Y75.503 E.01691
G1 X145.287 Y75.094 E.01692
G1 X144.906 Y74.713 E.01689
G1 X144.497 Y74.361 E.01692
G1 X144.063 Y74.041 E.01691
G1 X143.606 Y73.754 E.01692
G1 X143.129 Y73.502 E.01691
G1 X142.635 Y73.286 E.0169
G1 X142.126 Y73.108 E.01691
G1 X141.605 Y72.968 E.01692
G1 X141.075 Y72.868 E.01691
G1 X140.539 Y72.808 E.01691
G1 X139.985 Y72.787 E.01738
G1 X93.99 Y72.787 E1.44214
G1 X93.594 Y72.735 E.01252
G1 X93.025 Y72.492 E.0194
G1 X92.574 Y72.069 E.01939
G1 X92.295 Y71.517 E.01939
G1 X92.213 Y71.01 E.0161
G1 X92.213 Y63.99 E.22011
G1 X92.265 Y63.594 E.01252
G1 X92.452 Y63.106 E.01639
G1 X92.781 Y62.7 E.01638
G1 X93.115 Y62.468 E.01275
G1 X93.483 Y62.295 E.01275
G1 X93.99 Y62.213 E.0161
G1 X148.352 Y62.213 E1.70448
G1 X148.709 Y62.255 E.01127
G1 X149.23 Y62.453 E.01748
G1 X149.655 Y62.784 E.01689
G1 X157.27 Y70.399 E.33766
G1 X157.493 Y70.682 E.0113
G1 X157.721 Y71.19 E.01746
G1 X157.787 Y71.725 E.0169
G1 X157.787 Y138.352 E2.08904
G1 X157.745 Y138.709 E.01127
G1 X157.547 Y139.23 E.01748
G1 X157.216 Y139.655 E.01689
G1 X149.601 Y147.27 E.33766
G1 X149.318 Y147.493 E.0113
G1 X148.81 Y147.721 E.01746
G1 X148.275 Y147.787 E.0169
G1 X93.99 Y147.787 E1.70207
G1 X93.594 Y147.735 E.01252
G1 X93.106 Y147.548 E.01639
G1 X92.7 Y147.219 E.01638
G1 X92.468 Y146.885 E.01275
G1 X92.295 Y146.517 E.01275
G1 X92.213 Y146.01 E.0161
G1 X92.213 Y137.779 E.25808
G1 X92.326 Y137.439 E.01123
G1 X92.35 Y137.421 E.00094
M204 S1000
G1 X92.676 Y137.641 F10800
M204 S800
;TYPE:External perimeter
G1 F1200
G1 X92.779 Y137.59 E.0036
G1 X139.992 Y137.59 E1.48033
G1 X140.567 Y137.568 E.01804
G1 X141.131 Y137.505 E.01779
G1 X141.689 Y137.399 E.01781
G1 X142.237 Y137.253 E.01778
G1 X142.773 Y137.065 E.01781
G1 X143.293 Y136.838 E.01779
G1 X143.795 Y136.573 E.0178
G1 X144.275 Y136.271 E.01778
G1 X144.732 Y135.934 E.0178
G1 X145.162 Y135.564 E.01779
G1 X145.564 Y135.162 E.01783
G1 X145.934 Y134.732 E.01779
G1 X146.271 Y134.275 E.0178
G1 X146.573 Y133.795 E.01778
G1 X146.838 Y133.293 E.0178
G1 X147.065 Y132.773 E.01779
G1 X147.253 Y132.237 E.01781
G1 X147.399 Y131.689 E.01778
G1 X147.505 Y131.131 E.01781
G1 X147.569 Y130.567 E.0178
G1 X147.59 Y129.992 E.01804
G1 X147.59 Y80.008 E1.56721
G1 X147.568 Y79.433 E.01804
M73 P1 R99
M73 Q1 S100
G1 X147.505 Y78.869 E.01779
G1 X147.399 Y78.311 E.01781
G1 X147.253 Y77.763 E.01778
G1 X147.065 Y77.227 E.01781
G1 X146.838 Y76.707 E.01779
G1 X146.573 Y76.205 E.0178
G1 X146.271 Y75.725 E.01778
G1 X145.934 Y75.268 E.0178
G1 X145.564 Y74.838 E.01779
G1 X145.162 Y74.436 E.01783
G1 X144.732 Y74.066 E.01779
G1 X144.275 Y73.729 E.0178
G1 X143.795 Y73.427 E.01778
G1 X143.293 Y73.162 E.0178
G1 X142.773 Y72.935 E.01779
G1 X142.237 Y72.747 E.01781
G1 X141.689 Y72.601 E.01778
G1 X141.131 Y72.495 E.01781
G1 X140.567 Y72.432 E.01779
G1 X139.992 Y72.41 E.01804
G1 X93.99 Y72.41 E1.44236
G1 X93.723 Y72.381 E.00842
M73 P1 R98
G1 X93.268 Y72.203 E.01532
G1 X92.9 Y71.88 E.01535
G1 X92.666 Y71.451 E.01532
G1 X92.59 Y71.01 E.01403
G1 X92.59 Y63.99 E.22011
G1 X92.619 Y63.723 E.00842
G1 X92.822 Y63.238 E.01649
G1 X93.12 Y62.9 E.01413
G1 X93.549 Y62.666 E.01532
G1 X94.039 Y62.59 E.01555
G1 X148.352 Y62.59 E1.70294
G1 X148.593 Y62.614 E.00759
G1 X149.009 Y62.758 E.0138
G1 X149.388 Y63.051 E.01502
G1 X157.003 Y70.666 E.33766
G1 X157.157 Y70.853 E.0076
G1 X157.348 Y71.249 E.01379
G1 X157.41 Y71.725 E.01505
G1 X157.41 Y138.352 E2.08904
G1 X157.386 Y138.593 E.00759
G1 X157.242 Y139.009 E.0138
G1 X156.949 Y139.388 E.01502
G1 X149.334 Y147.003 E.33766
G1 X149.147 Y147.157 E.0076
G1 X148.751 Y147.348 E.01379
G1 X148.275 Y147.41 E.01505
G1 X93.99 Y147.41 E1.70207
G1 X93.723 Y147.381 E.00842
G1 X93.238 Y147.178 E.01649
G1 X92.9 Y146.88 E.01413
G1 X92.666 Y146.451 E.01532
G1 X92.59 Y145.961 E.01555
G1 X92.59 Y137.779 E.25654
G1 X92.626 Y137.671 E.00357
M204 S1000
;WIPE_START
G1 F8640
G1 X92.676 Y137.641 E-.01346
G1 X92.779 Y137.59 E-.02654
G1 X96.07 Y137.59 E-.76
;WIPE_END
G1 Z.6 F720
G1 X135.743 Y110.81 F10800
G1 Z.2 F720
G1 E.8 F2100
M204 S800
;TYPE:Perimeter
G1 F1200
G1 X135.787 Y110.349 E.01452
G1 X135.787 Y99.621 E.33637
G1 X135.682 Y98.669 E.03003
G1 X135.399 Y97.775 E.0294
G1 X134.948 Y96.953 E.0294
G1 X134.389 Y96.276 E.02753
G1 X126.702 Y88.589 E.34085
G1 X125.955 Y87.991 E.03
G1 X125.123 Y87.558 E.02941
G1 X124.222 Y87.297 E.02941
G1 X123.349 Y87.213 E.0275
G1 X94.035 Y87.213 E.91912
G1 X93.333 Y87.139 E.02213
G1 X92.695 Y86.932 E.02103
G1 X92.114 Y86.597 E.02103
G1 X91.615 Y86.148 E.02105
G1 X91.22 Y85.605 E.02105
G1 X90.948 Y84.992 E.02103
G1 X90.858 Y84.572 E.01347
G1 X90.787 Y83.979 E.01873
G1 X90.787 Y64.035 E.62533
G1 X90.861 Y63.333 E.02213
G1 X91.068 Y62.695 E.02103
G1 X91.403 Y62.113 E.02106
G1 X91.852 Y61.615 E.02102
G1 X92.395 Y61.22 E.02105
G1 X93.008 Y60.948 E.02103
G1 X93.617 Y60.818 E.01952
G1 X94.039 Y60.787 E.01327
G1 X148.386 Y60.787 E1.70401
G1 X149.134 Y60.902 E.02373
G1 X149.633 Y61.068 E.01649
G1 X150.181 Y61.376 E.01971
G1 X150.663 Y61.776 E.01964
G1 X158.302 Y69.415 E.33873
G1 X158.75 Y70.025 E.02373
G1 X158.986 Y70.496 E.01652
G1 X159.155 Y71.101 E.0197
G1 X159.213 Y71.725 E.01965
G1 X159.213 Y138.31 E2.08772
G1 X159.148 Y138.969 E.02076
G1 X158.966 Y139.572 E.01975
G1 X158.669 Y140.126 E.01971
